X: 9862
T: Dermot
R: waltz
M: 3/4
K: Dmajor
A2S|:A3GF2|d3cB2|A2GFED|F2E2E2|
A3GF2|d3ef2|DEF2E2|1 E4A2:|2 D4d2||
|:d3c Bc|d2D2D2|d3c de|f2d2B2|
A2G2F2|d3ef2|DEF2E2|1 E4A2:|2 D4 A2S||

